icons/circle/48/tixati.svg

<svg version="1.1" viewBox="0 0 48 48" xmlns="http://www.w3.org/2000/svg">
 <defs>
  <linearGradient id="linearGradient3764-0" x1="1" x2="47" gradientTransform="matrix(0 -1 1 0 -1e-6 48)" gradientUnits="userSpaceOnUse">
   <stop style="stop-color:#e4e4e4" offset="0"/>
   <stop style="stop-color:#eee" offset="1"/>
  </linearGradient>
 </defs>
 <path d="m36.31 5c5.859 4.062 9.688 10.831 9.688 18.5 0 12.426-10.07 22.5-22.5 22.5-7.669 0-14.438-3.828-18.5-9.688 1.037 1.822 2.306 3.499 3.781 4.969 4.085 3.712 9.514 5.969 15.469 5.969 12.703 0 23-10.298 23-23 0-5.954-2.256-11.384-5.969-15.469-1.469-1.475-3.147-2.744-4.969-3.781zm4.969 3.781c3.854 4.113 6.219 9.637 6.219 15.719 0 12.703-10.297 23-23 23-6.081 0-11.606-2.364-15.719-6.219 4.16 4.144 9.883 6.719 16.219 6.719 12.703 0 23-10.298 23-23 0-6.335-2.575-12.06-6.719-16.219z" style="opacity:.05"/>
 <path d="m41.28 8.781c3.712 4.085 5.969 9.514 5.969 15.469 0 12.703-10.297 23-23 23-5.954 0-11.384-2.256-15.469-5.969 4.113 3.854 9.637 6.219 15.719 6.219 12.703 0 23-10.298 23-23 0-6.081-2.364-11.606-6.219-15.719z" style="opacity:.1"/>
 <path d="m31.25 2.375c8.615 3.154 14.75 11.417 14.75 21.13 0 12.426-10.07 22.5-22.5 22.5-9.708 0-17.971-6.135-21.12-14.75a23 23 0 0 0 44.875 -7 23 23 0 0 0 -16 -21.875z" style="opacity:.2"/>
 <path d="m24 1c12.703 0 23 10.297 23 23s-10.297 23-23 23-23-10.297-23-23 10.297-23 23-23" style="fill:url(#linearGradient3764-0)"/>
 <path d="m13 12.969v2.0312h1l6.377 6.6348-5.2266 13.232 0.2793 0.08594-0.64453 0.73047 1.2852 1.0859 7.9297-8.6641v8.8945h2v-9.5137l8.7051 9.0586 1.2383-1.1328-0.61133-0.6582 0.19531-0.066406-5.6387-13.012 6.1113-6.6758h1v-2.0312zm4 2.0312h5.9961l-1.7891 4.5332zm9.9961 0h6.0039l-4.0234 4.5684zm-3 2h0.003906v5.543l-1.5059-1.623zm2.0039 0.009766 1.7285 3.9766-1.7285 1.9609zm-4.3066 5.9961 2.2207 2.3105-5.502 6.248zm6.9336 0.04687 3.6621 8.4219-5.7246-6.168z" style="opacity:.1"/>
 <path d="m40.03 7.531c3.712 4.084 5.969 9.514 5.969 15.469 0 12.703-10.297 23-23 23-5.954 0-11.384-2.256-15.469-5.969 4.178 4.291 10.01 6.969 16.469 6.969 12.703 0 23-10.298 23-23 0-6.462-2.677-12.291-6.969-16.469z" style="opacity:.1"/>
 <path d="m14.15 33.868 7.847-19.868h4l8.531 19.687-1.606 0.543-7.925-18.23h-2l-7.06 18.412z" style="fill:#c9371b"/>
 <path d="m13.786 34.683 1.285 1.087 19.929-21.77h-3z" style="fill:#4dcb32"/>
 <path d="m33.705 35.544 1.239-1.132-18.944-20.412h-3z" style="fill:#4dcb32"/>
 <path d="m12 11.969v2.031h11v22h2v-22h11v-2.031h-24z" style="fill:#1d8af3"/>
</svg>

<svg viewBox="0 0 48 48" xmlns="http://www.w3.org/2000/svg">
  <defs>
    <linearGradient id="a" x1="1" x2="47" gradientTransform="rotate(-90 24 24)" gradientUnits="userSpaceOnUse">
      <stop offset="0" stop-color="#e4e4e4"/>
      <stop offset="1" stop-color="#eee"/>
    </linearGradient>
  </defs>
  <path d="M36.31 5c5.859 4.062 9.688 10.831 9.688 18.5 0 12.426-10.07 22.5-22.5 22.5-7.669 0-14.438-3.828-18.5-9.688a23.24 23.24 0 0 0 3.781 4.969 22.923 22.923 0 0 0 15.469 5.969c12.703 0 23-10.298 23-23a22.92 22.92 0 0 0-5.969-15.469A23.216 23.216 0 0 0 36.31 5zm4.969 3.781A22.911 22.911 0 0 1 47.498 24.5c0 12.703-10.297 23-23 23a22.909 22.909 0 0 1-15.719-6.219C12.939 45.425 18.662 48 24.998 48c12.703 0 23-10.298 23-23 0-6.335-2.575-12.06-6.719-16.219z" opacity=".05"/>
  <path d="M41.28 8.781a22.923 22.923 0 0 1 5.969 15.469c0 12.703-10.297 23-23 23A22.92 22.92 0 0 1 8.78 41.281 22.911 22.911 0 0 0 24.499 47.5c12.703 0 23-10.298 23-23A22.909 22.909 0 0 0 41.28 8.781z" opacity=".1"/>
  <path d="M31.25 2.375C39.865 5.529 46 13.792 46 23.505c0 12.426-10.07 22.5-22.5 22.5-9.708 0-17.971-6.135-21.12-14.75a23 23 0 0 0 44.875-7 23 23 0 0 0-16-21.875z" opacity=".2"/>
  <path d="M24 1c12.703 0 23 10.297 23 23S36.703 47 24 47 1 36.703 1 24 11.297 1 24 1" fill="url(#a)"/>
  <path d="M13 12.969V15h1l6.377 6.635-5.227 13.232.28.086-.645.73 1.285 1.086L24 28.105V37h2v-9.514l8.705 9.059 1.238-1.133-.61-.658.194-.067-5.638-13.012L36 15h1v-2.03zM17 15h5.996l-1.789 4.533zm9.996 0H33l-4.023 4.569zm-3 2H24v5.543l-1.506-1.623zm2.004.01l1.728 3.977L26 22.947zm-4.307 5.996l2.221 2.31-5.502 6.249zm6.934.047l3.662 8.422-5.724-6.168z" opacity=".1"/>
  <path d="M40.03 7.531A22.922 22.922 0 0 1 45.999 23c0 12.703-10.297 23-23 23A22.92 22.92 0 0 1 7.53 40.031C11.708 44.322 17.54 47 23.999 47c12.703 0 23-10.298 23-23 0-6.462-2.677-12.291-6.969-16.469z" opacity=".1"/>
  <path d="M14.15 33.868L21.997 14h4l8.531 19.687-1.606.543L24.997 16h-2l-7.06 18.412z" fill="#c9371b"/>
  <path d="M13.786 34.683l1.285 1.087L35 14h-3z" fill="#4dcb32"/>
  <path d="M33.705 35.544l1.239-1.132L16 14h-3z" fill="#4dcb32"/>
  <path d="M12 11.969V14h11v22h2V14h11v-2.031H12z" fill="#1d8af3"/>
</svg>
